SVG_Azure_Grouped/Dynamics 365/Application Project Timesheet.svg

<?xml version="1.0" encoding="UTF-8" standalone="no"?>
<!-- Generated by Microsoft Visio, SVG Export Application Project Timesheet.svg Page-1 -->

<svg
   xmlns:dc="http://purl.org/dc/elements/1.1/"
   xmlns:cc="http://creativecommons.org/ns#"
   xmlns:rdf="http://www.w3.org/1999/02/22-rdf-syntax-ns#"
   xmlns:svg="http://www.w3.org/2000/svg"
   xmlns="http://www.w3.org/2000/svg"
   xmlns:sodipodi="http://sodipodi.sourceforge.net/DTD/sodipodi-0.dtd"
   xmlns:inkscape="http://www.inkscape.org/namespaces/inkscape"
   width="0.78739941in"
   height="0.78744388in"
   viewBox="0 0 56.692756 56.6961"
   xml:space="preserve"
   class="st9"
   version="1.1"
   id="svg65"
   sodipodi:docname="Application Project Timesheet.svg"
   style="font-size:12px;overflow:visible;color-interpolation-filters:sRGB;fill:none;fill-rule:evenodd;stroke-linecap:square;stroke-miterlimit:3"
   inkscape:version="0.92.5 (2060ec1f9f, 2020-04-08)"><metadata
   id="metadata69"><rdf:RDF><cc:Work
       rdf:about=""><dc:format>image/svg+xml</dc:format><dc:type
         rdf:resource="http://purl.org/dc/dcmitype/StillImage" /></cc:Work></rdf:RDF></metadata><sodipodi:namedview
   pagecolor="#ffffff"
   bordercolor="#666666"
   borderopacity="1"
   objecttolerance="10"
   gridtolerance="10"
   guidetolerance="10"
   inkscape:pageopacity="0"
   inkscape:pageshadow="2"
   inkscape:window-width="640"
   inkscape:window-height="480"
   id="namedview67"
   showgrid="false"
   inkscape:zoom="1.8365233"
   inkscape:cx="37.795184"
   inkscape:cy="18.897684"
   inkscape:window-x="0"
   inkscape:window-y="0"
   inkscape:window-maximized="0"
   inkscape:current-layer="svg65" />
	<style
   type="text/css"
   id="style2">
	<![CDATA[
		.st1 {fill:#f9894e;stroke:none;stroke-linecap:butt;stroke-width:0.75}
		.st2 {fill:#e9672d;stroke:none;stroke-linecap:butt;stroke-width:0.75}
		.st3 {fill:#b6311d;stroke:none;stroke-linecap:butt;stroke-width:0.75}
		.st4 {fill:#912c26;stroke:none;stroke-linecap:butt;stroke-width:0.75}
		.st5 {fill:#d83b01;stroke:none;stroke-linecap:butt;stroke-width:0.75}
		.st6 {fill:#000000;fill-opacity:0.24;stroke:none;stroke-linecap:butt;stroke-width:0.75}
		.st7 {fill:#000000;fill-opacity:0.32;stroke:none;stroke-linecap:butt;stroke-width:0.75}
		.st8 {fill:url(#grad0-20);stroke:none;stroke-linecap:butt;stroke-width:0.75}
		.st9 {fill:none;fill-rule:evenodd;font-size:12px;overflow:visible;stroke-linecap:square;stroke-miterlimit:3}
	]]>
	</style>

	<defs
   id="Patterns_And_Gradients">
		<linearGradient
   id="grad0-20"
   x1="0"
   y1="61.947696"
   x2="33.420848"
   y2="61.947696"
   gradientTransform="scale(0.98952607,1.0105848)"
   gradientUnits="userSpaceOnUse">
			<stop
   offset="0"
   stop-color="#ffdac2"
   stop-opacity="1"
   id="stop4" />
			<stop
   offset="1"
   stop-color="#f69b63"
   stop-opacity="1"
   id="stop6" />
		</linearGradient>
	</defs>
	<g
   id="g63"
   transform="translate(-5.6693772,-5.6662)">
		<title
   id="title10">Page-1</title>
		<g
   id="group21246-1"
   transform="translate(5.66929,-34.0157)">
			<title
   id="title12">Application Project Timesheet.21246</title>
			<g
   id="group21247-2">
				<title
   id="title14">Sheet.21247</title>
				<g
   id="shape21248-3"
   transform="translate(21.2598,-42.2181)">
					<title
   id="title16">Sheet.21248</title>
					<path
   d="M 0,81.9 H 35.43 V 96.38 H 0 Z"
   class="st1"
   id="path18"
   inkscape:connector-curvature="0"
   style="fill:#f9894e;stroke:none;stroke-width:0.75;stroke-linecap:butt" />
				</g>
				<g
   id="shape21249-5"
   transform="translate(1.05599e-6,-42.2181)">
					<title
   id="title21">Sheet.21249</title>
					<path
   d="M 35.43,81.9 H 0 v 14.48 h 35.43 z"
   class="st2"
   id="path23"
   inkscape:connector-curvature="0"
   style="fill:#e9672d;stroke:none;stroke-width:0.75;stroke-linecap:butt" />
				</g>
				<g
   id="shape21250-7"
   transform="translate(0,-27.7433)">
					<title
   id="title26">Sheet.21250</title>
					<rect
   x="0"
   y="81.903198"
   width="56.692902"
   height="14.4748"
   class="st3"
   id="rect28"
   style="fill:#b6311d;stroke:none;stroke-width:0.75;stroke-linecap:butt" />
				</g>
				<g
   id="shape21251-9"
   transform="translate(0,-13.2686)">
					<title
   id="title31">Sheet.21251</title>
					<path
   d="M 0,81.9 H 56.69 V 96.38 H 0 Z"
   class="st4"
   id="path33"
   inkscape:connector-curvature="0"
   style="fill:#912c26;stroke:none;stroke-width:0.75;stroke-linecap:butt" />
				</g>
				<g
   id="shape21252-11"
   transform="translate(18.8976,-27.7433)">
					<title
   id="title36">Sheet.21252</title>
					<rect
   x="0"
   y="81.903198"
   width="37.7953"
   height="14.4748"
   class="st5"
   id="rect38"
   style="fill:#d83b01;stroke:none;stroke-width:0.75;stroke-linecap:butt" />
				</g>
				<g
   id="shape21253-13"
   transform="translate(18.8976,-0.964986)">
					<title
   id="title41">Sheet.21253</title>
					<ellipse
   cx="16.5354"
   cy="79.4907"
   rx="16.5354"
   ry="16.8873"
   class="st6"
   id="ellipse43"
   style="fill:#000000;fill-opacity:0.23999999;stroke:none;stroke-width:0.75;stroke-linecap:butt" />
				</g>
				<g
   id="shape21254-15"
   transform="translate(18.8976)">
					<title
   id="title46">Sheet.21254</title>
					<ellipse
   cx="16.5354"
   cy="79.4907"
   rx="16.5354"
   ry="16.8873"
   class="st7"
   id="ellipse48"
   style="fill:#000000;fill-opacity:0.31999996;stroke:none;stroke-width:0.75;stroke-linecap:butt" />
				</g>
				<g
   id="shape21255-17"
   transform="translate(18.8976,-1.20623)">
					<title
   id="title51">Sheet.21255</title>
					<ellipse
   cx="16.5354"
   cy="79.4907"
   rx="16.5354"
   ry="16.8873"
   class="st8"
   id="ellipse53"
   style="fill:url(#grad0-20);stroke:none;stroke-width:0.75;stroke-linecap:butt" />
				</g>
				<g
   id="shape21256-21"
   transform="translate(33.0709,-15.681)">
					<title
   id="title56">Sheet.21256</title>
					<path
   d="m 3.54,81.9 c 0.66,0 1.18,0.54 1.18,1.21 v 8.44 h 5.91 c 0.65,0 1.18,0.54 1.18,1.21 v 2.41 c 0,0.67 -0.53,1.21 -1.18,1.21 H 2.36 C 1.06,96.38 0,95.3 0,93.97 V 83.11 C 0,82.44 0.53,81.9 1.18,81.9 Z"
   class="st5"
   id="path58"
   inkscape:connector-curvature="0"
   style="fill:#d83b01;stroke:none;stroke-width:0.75;stroke-linecap:butt" />
				</g>
			</g>
		</g>
	</g>
</svg>

<?xml version="1.0" encoding="UTF-8" standalone="no"?>
<!DOCTYPE svg PUBLIC "-//W3C//DTD SVG 1.1//EN" "http://www.w3.org/Graphics/SVG/1.1/DTD/svg11.dtd">
<!-- Generated by Microsoft Visio, SVG Export Application Project Timesheet.svg Page-1 -->
<svg xmlns="http://www.w3.org/2000/svg" xmlns:xlink="http://www.w3.org/1999/xlink" xmlns:ev="http://www.w3.org/2001/xml-events"
		width="0.944882in" height="1.33858in" viewBox="0 0 68.0315 96.378" xml:space="preserve" color-interpolation-filters="sRGB"
		class="st9">
	<style type="text/css">
	<![CDATA[
		.st1 {fill:#f9894e;stroke:none;stroke-linecap:butt;stroke-width:0.75}
		.st2 {fill:#e9672d;stroke:none;stroke-linecap:butt;stroke-width:0.75}
		.st3 {fill:#b6311d;stroke:none;stroke-linecap:butt;stroke-width:0.75}
		.st4 {fill:#912c26;stroke:none;stroke-linecap:butt;stroke-width:0.75}
		.st5 {fill:#d83b01;stroke:none;stroke-linecap:butt;stroke-width:0.75}
		.st6 {fill:#000000;fill-opacity:0.24;stroke:none;stroke-linecap:butt;stroke-width:0.75}
		.st7 {fill:#000000;fill-opacity:0.32;stroke:none;stroke-linecap:butt;stroke-width:0.75}
		.st8 {fill:url(#grad0-20);stroke:none;stroke-linecap:butt;stroke-width:0.75}
		.st9 {fill:none;fill-rule:evenodd;font-size:12px;overflow:visible;stroke-linecap:square;stroke-miterlimit:3}
	]]>
	</style>

	<defs id="Patterns_And_Gradients">
		<linearGradient id="grad0-20" x1="0" y1="0" x2="1" y2="0" gradientTransform="rotate(59.489762593884 0.5 0.5)">
			<stop offset="0" stop-color="#ffdac2" stop-opacity="1"/>
			<stop offset="1" stop-color="#f69b63" stop-opacity="1"/>
		</linearGradient>
	</defs>
	<g>
		<title>Page-1</title>
		<g id="group20771-1" transform="translate(5.66929,-34.0157)">
			<title>Application Project Timesheet.20771</title>
			<g id="group20772-2">
				<title>Sheet.20772</title>
				<g id="shape20773-3" transform="translate(21.2598,-42.2181)">
					<title>Sheet.20773</title>
					<path d="M0 81.9 L35.43 81.9 L35.43 96.38 L0 96.38 L0 81.9 Z" class="st1"/>
				</g>
				<g id="shape20774-5" transform="translate(1.05599E-06,-42.2181)">
					<title>Sheet.20774</title>
					<path d="M35.43 81.9 L0 81.9 L0 96.38 L35.43 96.38 L35.43 81.9 Z" class="st2"/>
				</g>
				<g id="shape20775-7" transform="translate(0,-27.7433)">
					<title>Sheet.20775</title>
					<rect x="0" y="81.9032" width="56.6929" height="14.4748" class="st3"/>
				</g>
				<g id="shape20776-9" transform="translate(0,-13.2686)">
					<title>Sheet.20776</title>
					<path d="M0 81.9 L56.69 81.9 L56.69 96.38 L0 96.38 L0 81.9 Z" class="st4"/>
				</g>
				<g id="shape20777-11" transform="translate(18.8976,-27.7433)">
					<title>Sheet.20777</title>
					<rect x="0" y="81.9032" width="37.7953" height="14.4748" class="st5"/>
				</g>
				<g id="shape20778-13" transform="translate(18.8976,-0.964986)">
					<title>Sheet.20778</title>
					<ellipse cx="16.5354" cy="79.4907" rx="16.5354" ry="16.8873" class="st6"/>
				</g>
				<g id="shape20779-15" transform="translate(18.8976,0)">
					<title>Sheet.20779</title>
					<ellipse cx="16.5354" cy="79.4907" rx="16.5354" ry="16.8873" class="st7"/>
				</g>
				<g id="shape20780-17" transform="translate(18.8976,-1.20623)">
					<title>Sheet.20780</title>
					<ellipse cx="16.5354" cy="79.4907" rx="16.5354" ry="16.8873" class="st8"/>
				</g>
				<g id="shape20781-21" transform="translate(33.0709,-15.681)">
					<title>Sheet.20781</title>
					<path d="M3.54 81.9 C4.2 81.9 4.72 82.44 4.72 83.11 L4.72 91.55 L10.63 91.55 C11.28 91.55 11.81 92.09 11.81 92.76
								 L11.81 95.17 C11.81 95.84 11.28 96.38 10.63 96.38 L2.36 96.38 C1.06 96.38 0 95.3 0 93.97 L0 83.11
								 C0 82.44 0.53 81.9 1.18 81.9 L3.54 81.9 Z" class="st5"/>
				</g>
			</g>
		</g>
	</g>
</svg>
